findly-builder/apps/searchassist/src/assets/icons/empty_screen_recent_activities.svg

<svg width="498" height="156" xmlns="http://www.w3.org/2000/svg"><g fill="none" fill-rule="evenodd"><path fill="#E5E8EC" fill-rule="nonzero" d="M236 7.5v15H50v-15z"/><rect fill="#E5E8EC" fill-rule="nonzero" transform="rotate(90 22 15)" x="7" width="30" height="30" rx="15"/><path fill="#E5E8EC" fill-rule="nonzero" d="M236 63.5v15H50v-15z"/><rect fill="#E5E8EC" fill-rule="nonzero" transform="rotate(90 22 71)" x="7" y="56" width="30" height="30" rx="15"/><path fill="#E5E8EC" fill-rule="nonzero" d="M236 119.5v15H50v-15z"/><rect fill="#E5E8EC" fill-rule="nonzero" transform="rotate(90 22 127)" x="7" y="112" width="30" height="30" rx="15"/><path d="M498 7.5v15h-24v-15h24Zm0 56v15h-24v-15h24Zm0 56v15h-24v-15h24Z" fill="#E5E8EC" fill-rule="nonzero"/><path d="M.384 43h497.519M.384 99h497.519M.384 155h497.519" stroke="#E5E8EC" stroke-linecap="square"/></g></svg>

<?xml version="1.0" encoding="UTF-8"?>
<svg width="498px" height="156px" viewBox="0 0 498 156" version="1.1" xmlns="http://www.w3.org/2000/svg" xmlns:xlink="http://www.w3.org/1999/xlink">
    <!-- Generator: Sketch 53.2 (72643) - https://sketchapp.com -->
    <title>empty_screen_recent_activities</title>
    <desc>Created with Sketch.</desc>
    <g id="Page-1" stroke="none" stroke-width="1" fill="none" fill-rule="evenodd">
        <g id="empty_screen_recent_activities">
            <polygon id="Path" fill="#E5E8EC" fill-rule="nonzero" points="236 7.5 236 22.5 50 22.5 50 7.5"></polygon>
            <rect id="Rectangle" fill="#E5E8EC" fill-rule="nonzero" transform="translate(22.000000, 15.000000) rotate(90.000000) translate(-22.000000, -15.000000) " x="7" y="0" width="30" height="30" rx="15"></rect>
            <polygon id="Path" fill="#E5E8EC" fill-rule="nonzero" points="236 63.5 236 78.5 50 78.5 50 63.5"></polygon>
            <rect id="Rectangle" fill="#E5E8EC" fill-rule="nonzero" transform="translate(22.000000, 71.000000) rotate(90.000000) translate(-22.000000, -71.000000) " x="7" y="56" width="30" height="30" rx="15"></rect>
            <polygon id="Path" fill="#E5E8EC" fill-rule="nonzero" points="236 119.5 236 134.5 50 134.5 50 119.5"></polygon>
            <rect id="Rectangle" fill="#E5E8EC" fill-rule="nonzero" transform="translate(22.000000, 127.000000) rotate(90.000000) translate(-22.000000, -127.000000) " x="7" y="112" width="30" height="30" rx="15"></rect>
            <path d="M498,7.5 L498,22.5 L474,22.5 L474,7.5 L498,7.5 Z M498,63.5 L498,78.5 L474,78.5 L474,63.5 L498,63.5 Z M498,119.5 L498,134.5 L474,134.5 L474,119.5 L498,119.5 Z" id="Shape" fill="#E5E8EC" fill-rule="nonzero"></path>
            <path d="M0.384,43 L497.903,43 M0.384,99 L497.903,99 M0.384,155 L497.903,155" id="Shape" stroke="#E5E8EC" stroke-linecap="square"></path>
        </g>
    </g>
</svg>
